assets/logos/webhook.svg

<svg width="80" height="80" viewBox="0 0 80 80" fill="none" xmlns="http://www.w3.org/2000/svg">
<path d="M37.9936 34.9721C35.3314 39.4472 32.7809 43.7807 30.1772 48.0816C29.5085 49.1858 29.1775 50.0853 29.7117 51.4889C31.1866 55.3663 29.106 59.1396 25.1958 60.1637C21.5082 61.1299 17.9153 58.7065 17.1837 54.7586C16.5353 51.2643 19.2472 47.8388 23.1002 47.2926C23.4229 47.2464 23.7526 47.2411 24.295 47.2005L30.1558 37.3732C26.4697 33.7081 24.2757 29.424 24.7612 24.1149C25.1045 20.3622 26.5803 17.1191 29.2777 14.461C34.4439 9.37077 42.3256 8.54656 48.4087 12.4536C54.2509 16.2065 56.9267 23.5168 54.6459 29.7735C52.9261 29.3073 51.1943 28.8371 49.2906 28.3207C50.0068 24.842 49.4771 21.7183 47.1308 19.0422C45.5807 17.2754 43.5914 16.3493 41.3297 16.0081C36.7952 15.3231 32.3433 18.2361 31.0222 22.6865C29.5228 27.7372 31.7923 31.8632 37.9936 34.9724V34.9721Z" fill="#C73A63"/>
<path d="M45.5964 29.6799C47.472 32.9885 49.3764 36.347 51.2638 39.6747C60.8034 36.7234 67.9961 42.0041 70.5765 47.6576C73.6933 54.4869 71.5626 62.5754 65.4416 66.7888C59.1587 71.1138 51.2131 70.3749 45.6466 64.8189C47.0653 63.6314 48.4909 62.4386 50.0142 61.1643C55.5122 64.7251 60.3209 64.5575 63.8909 60.3409C66.9352 56.7437 66.8692 51.3802 63.7366 47.8586C60.1215 43.7948 55.2791 43.6708 49.4258 47.5718C46.9978 43.2644 44.5275 38.9913 42.1762 34.6527C41.3834 33.1905 40.5082 32.3419 38.7212 32.0326C35.7371 31.5152 33.8106 28.9528 33.6949 26.082C33.5812 23.2428 35.2541 20.6763 37.8686 19.6765C40.4585 18.6857 43.4978 19.4853 45.2399 21.6872C46.6635 23.4862 47.1159 25.5109 46.3667 27.7296C46.1585 28.3484 45.8887 28.947 45.5964 29.6801V29.6799Z" fill="#4B4B4B"/>
<path d="M50.0794 56.7269H38.5951C37.4944 61.2541 35.1167 64.9092 31.0201 67.2336C27.8352 69.04 24.4028 69.6525 20.7495 69.0626C14.023 67.978 8.52302 61.923 8.03876 55.105C7.49077 47.3813 12.7998 40.516 19.8763 38.9739C20.3648 40.7481 20.8586 42.5392 21.3471 44.3091C14.8545 47.6215 12.6074 51.7949 14.4245 57.0136C16.024 61.6061 20.5678 64.1234 25.5015 63.1499C30.5398 62.1558 33.0801 57.9688 32.7699 51.2492C37.5463 51.2492 42.3267 51.1998 47.1035 51.2736C48.9688 51.3029 50.4088 51.1095 51.8139 49.4651C54.1273 46.7594 58.3856 47.0035 60.8771 49.5589C63.4234 52.1705 63.3014 56.3726 60.6069 58.8741C58.0072 61.2877 53.9 61.1588 51.4677 58.5579C50.9678 58.022 50.5739 57.3855 50.0794 56.7269Z" fill="#4A4A4A"/>
</svg>

<svg xmlns="http://www.w3.org/2000/svg" width="80" height="80" fill="none" viewBox="0 0 80 80"><path fill="#c73a63" d="M37.994 34.972c-2.663 4.475-5.213 8.809-7.817 13.11-.668 1.104-1 2.003-.465 3.407 1.475 3.877-.606 7.65-4.516 8.675-3.688.966-7.28-1.458-8.012-5.405-.649-3.495 2.063-6.92 5.916-7.466.323-.047.653-.052 1.195-.093l5.86-9.827c-3.685-3.665-5.88-7.949-5.394-13.258.344-3.753 1.82-6.996 4.517-9.654 5.166-5.09 13.048-5.914 19.13-2.007 5.843 3.752 8.519 11.063 6.238 17.32L49.29 28.32c.716-3.479.186-6.603-2.16-9.279-1.55-1.767-3.54-2.693-5.801-3.034-4.535-.685-8.987 2.228-10.308 6.679-1.5 5.05.77 9.176 6.972 12.285"/><path fill="#4b4b4b" d="m45.596 29.68 5.668 9.995c9.54-2.952 16.732 2.33 19.312 7.983 3.117 6.829.987 14.917-5.134 19.13-6.283 4.326-14.229 3.587-19.795-1.97l4.367-3.654c5.498 3.561 10.307 3.394 13.877-.823 3.044-3.597 2.978-8.96-.154-12.482-3.616-4.064-8.458-4.188-14.311-.287-2.428-4.308-4.898-8.58-7.25-12.92-.793-1.462-1.668-2.31-3.455-2.62-2.984-.517-4.91-3.08-5.026-5.95-.114-2.84 1.56-5.406 4.174-6.405 2.59-.991 5.629-.192 7.37 2.01 1.425 1.8 1.877 3.824 1.128 6.043-.209.618-.478 1.217-.77 1.95"/><path fill="#4a4a4a" d="M50.08 56.727H38.594c-1.1 4.527-3.478 8.182-7.575 10.507-3.185 1.806-6.617 2.419-10.27 1.829-6.727-1.085-12.227-7.14-12.711-13.958-.548-7.724 4.76-14.589 11.837-16.131l1.471 5.335c-6.493 3.313-8.74 7.486-6.923 12.705 1.6 4.592 6.144 7.11 11.078 6.136 5.038-.994 7.578-5.181 7.268-11.9 4.776 0 9.557-.05 14.333.024 1.866.029 3.306-.165 4.71-1.809 2.314-2.706 6.573-2.462 9.064.094 2.546 2.611 2.424 6.814-.27 9.315-2.6 2.414-6.707 2.285-9.14-.316-.5-.536-.893-1.172-1.388-1.831"/></svg>
